X: 1
T: Hoban's On 63rd
M: 6/8
L: 1/8
R: jig
K: Gmaj
dc|:B2d gdB|GBd edc|Bdd gdB|Aff fed|
B2d gdB|GBd edc|BdB cAF|AGF Gdc:|
BAB GB/c/d|ecc Gce|dBG dBG|FAA DFA|
ABB GB/c/d|ecc Gce|dBG DFA|AGF Gdc:|
